packages/icons/src/SVG/unlocked-solid.svg

<svg width="12" height="12" viewBox="0 0 12 12" >
<path fill-rule="evenodd" clip-rule="evenodd" d="M4 1C3.44772 1 3 1.44772 3 2V4H12V12H0V4H2V2C2 0.895437 2.89544 0 4 0H8C9.10456 0 10 0.895437 10 2H9C9 1.44772 8.55228 1 8 1H4ZM6.5 8.91466C7.08259 8.70875 7.5 8.15312 7.5 7.5C7.5 6.67156 6.82844 6 6 6C5.17156 6 4.5 6.67156 4.5 7.5C4.5 8.15309 4.91741 8.70872 5.5 8.91466V10H6.5V8.91466Z" />
</svg>

<!-- Generated by IcoMoon.io -->
<svg version="1.1" xmlns="http://www.w3.org/2000/svg" width="12" height="12" viewBox="0 0 12 12">
<title>unlocked-solid</title>
<path d="M4 1c-0.552 0-1 0.448-1 1v2h9v8h-12v-8h2v-2c0-1.105 0.895-2 2-2h4c1.105 0 2 0.895 2 2h-1c0-0.552-0.448-1-1-1h-4zM6.5 8.915c0.583-0.206 1-0.762 1-1.415 0-0.828-0.672-1.5-1.5-1.5s-1.5 0.672-1.5 1.5c0 0.653 0.417 1.209 1 1.415v1.085h1v-1.085z"></path>
</svg>
